!!! OTL: Xi-, Zang\, Qing/, Ge- (Tibet Love Song)
!!! YEC: Copyright 2001, Chia-wei Lee
!! For Voice Only
!! [Moderato]
**kern	**silbe
*clefG2	*LXinhua
*E-:	*ping-ying
*M4/4	*
=2	=2
4cc	Wo^
4ee-	Jou^
2ff	Zai\
=3	=3
(8ff	Gau-
8ee-)	|
(8cc	Shan-
8ee-)	|
4b-	Ding^
([4b-	Shang\
=4	=4
4b-]	|
4cc)	|
8ff	Yu\
8ee-	Dao\
8cc	Yi-
8ee-	Ge\
=5	=5
4b-	Nian/
4b-	Qing-
8cc	Mei^
16f	Li\
16f	de
(8a-	Gu-
8cc-)	|
=6	=6
1b-	Nian/
=7	=7
8f	Gu-
(4f	Nian/
8a-)	|
8b-	Yau\
(4b-	Bu\
8cc-)	|
=8	=8
8ff	Da-
8ee-	Ying\
8cc-	Wo^
8ee-	De
(4a-	Hua\
4f)	|
=9	=9
8.ff	Wo^
16ee-	Jou\
8cc-	Yi-
8ee-	Ge\
8b-	Ren/
(4b-	Na
8cc-)	|
=10	=10
8ff	Du/
8ee-	Zi\
8cc-	Ge\
8ee-	Er/
(4b-	Pan/
4f)	|
=11	=11
1b-	Huan/
*-	*-
